public/images/logo.svg

<svg width="151" height="42" viewBox="0 0 151 42" fill="none" xmlns="http://www.w3.org/2000/svg">
<g clip-path="url(#clip0_91_462)">
<path d="M27.7024 20.7938C27.7024 24.844 25.5871 28.4155 22.3901 30.4812C21.7172 30.9173 20.9974 31.2858 20.2385 31.5779V42.5998H17.3721V29.5518C18.1212 29.4377 18.839 29.2317 19.5148 28.9464C19.7622 28.8419 20.0038 28.7259 20.2385 28.6011C21.0365 28.1766 21.7612 27.636 22.3901 27.0025C23.9822 25.403 24.9641 23.2096 24.9641 20.7938C24.9641 16.3683 21.6664 12.6895 17.3721 12.0358V9.30371C23.1812 9.97584 27.7024 14.8732 27.7024 20.7938Z" fill="#F7FBF5"/>
<path d="M26.552 0V2.84229H14.6452V9.18838C14.6413 9.18934 14.6374 9.19128 14.6334 9.19225V11.4359C13.8491 11.5549 13.099 11.7754 12.3958 12.0829C11.368 12.5316 10.4409 13.166 9.65751 13.9426C8.04287 15.5461 7.0424 17.7568 7.0424 20.1939C7.0424 24.6194 10.3401 28.2982 14.6334 28.9519V31.684C8.82525 31.0119 4.30407 26.1145 4.30407 20.1939C4.30407 16.1263 6.43801 12.5413 9.65751 10.4794C10.3587 10.0288 11.1127 9.65065 11.9068 9.35762V2.84229H0V0H26.552Z" fill="#F7FBF5"/>
</g>
<g clip-path="url(#clip1_91_462)">
<path d="M35.4955 13.5397V4.30095H32.1703V2.68091H40.6685V4.30095H37.3272V13.5397H35.4955Z" fill="#F7FBF5"/>
<path d="M41.4139 13.5397V2.68091H43.2456V7.18723H48.4691V2.68091H50.3008V13.5397H48.4691V8.80728H43.2483V13.5397H41.4139Z" fill="#F7FBF5"/>
<path d="M52.7341 13.5397V2.68091H60.423V4.30095H54.5685V7.18723H59.4193V8.80728H54.5685V11.9197H60.423V13.5397H52.7341Z" fill="#F7FBF5"/>
<path d="M32.1703 20.3391C32.1703 17.2108 34.3268 14.7634 37.5242 14.7634C40.7031 14.7634 42.8782 17.2108 42.8782 20.3391C42.8782 23.4835 40.7057 25.9308 37.5242 25.9308C34.3268 25.9308 32.1703 23.4835 32.1703 20.3391ZM40.9613 20.3391C40.9613 18.1019 39.8085 16.4979 37.5402 16.4979C35.2719 16.4979 34.1005 18.1046 34.1005 20.3391C34.1005 22.5923 35.2692 24.1804 37.5402 24.1804C39.8112 24.1804 40.9613 22.5923 40.9613 20.3391Z" fill="#F7FBF5"/>
<path d="M44.5928 25.7846V14.9285H49.0362C51.3232 14.9285 53.1069 16.0963 53.1069 18.6873C53.1069 21.1666 51.3391 22.3503 49.0362 22.3503H46.4245V25.7873H44.5928V25.7846ZM46.4271 16.5485V20.7303H48.8605C50.1091 20.7303 51.2113 20.2594 51.2113 18.6873C51.2113 17.0007 50.1091 16.5485 48.8605 16.5485H46.4271Z" fill="#F7FBF5"/>
<path d="M54.47 25.7846V14.9285H58.9134C61.2004 14.9285 62.9841 16.0963 62.9841 18.6873C62.9841 21.1666 61.2163 22.3503 58.9134 22.3503H56.3017V25.7873H54.47V25.7846ZM56.3043 16.5485V20.7303H58.7377C59.9863 20.7303 61.0885 20.2594 61.0885 18.6873C61.0885 17.0007 59.9863 16.5485 58.7377 16.5485H56.3043Z" fill="#F7FBF5"/>
<path d="M64.0225 20.3391C64.0225 17.2108 66.179 14.7634 69.3764 14.7634C72.5552 14.7634 74.7277 17.2108 74.7277 20.3391C74.7277 23.4835 72.5552 25.9308 69.3764 25.9308C66.179 25.9308 64.0225 23.4835 64.0225 20.3391ZM72.8135 20.3391C72.8135 18.1019 71.6634 16.4979 69.3924 16.4979C67.1214 16.4979 65.9527 18.1019 65.9527 20.3391C65.9527 22.5923 67.1214 24.1804 69.3924 24.1804C71.6634 24.1804 72.8135 22.5923 72.8135 20.3391Z" fill="#F7FBF5"/>
<path d="M76.4449 25.7846V14.9285H81.3436C83.5507 14.9285 85.204 16.0617 85.204 18.2989C85.204 20.1131 83.9554 21.1852 82.2515 21.3794C82.9011 21.5736 83.3377 21.9779 83.7264 22.6589L85.5768 25.7873H83.4682L81.5859 22.5631C81.1812 21.8343 80.6301 21.5736 79.6078 21.5736H78.2766V25.7873H76.4449V25.7846ZM78.2793 16.5485V20.0812H81.1653C82.3181 20.0812 83.3058 19.6609 83.3058 18.3468C83.3058 16.9688 82.3154 16.5485 81.1653 16.5485H78.2793Z" fill="#F7FBF5"/>
<path d="M88.7396 25.7846V16.5485H85.4143V14.9285H93.9151V16.5485H90.5739V25.7873H88.7396V25.7846Z" fill="#F7FBF5"/>
<path d="M94.5302 21.1506V14.9285H96.3459V21.1692C96.3459 23.324 97.0753 24.1992 98.8591 24.1992C100.675 24.1992 101.372 23.324 101.372 21.1692V14.9285H103.188V21.1506C103.188 24.4412 101.809 25.9469 98.8405 25.9469C95.9412 25.9469 94.5302 24.4412 94.5302 21.1506Z" fill="#F7FBF5"/>
<path d="M105.494 25.7846V14.9285H107.198L111.593 21.249L112.663 22.9515L112.549 20.8926V14.9285H114.381V25.7873H112.693L108.183 19.3683L107.192 17.828L107.323 19.8046V25.7846H105.494Z" fill="#F7FBF5"/>
<path d="M116.814 25.7846V14.9285H118.646V25.7873H116.814V25.7846Z" fill="#F7FBF5"/>
<path d="M122.732 25.7846V16.5485H119.407V14.9285H127.905V16.5485H124.564V25.7873H122.732V25.7846Z" fill="#F7FBF5"/>
<path d="M128.653 25.7846V14.9285H130.485V25.7873H128.653V25.7846Z" fill="#F7FBF5"/>
<path d="M132.918 25.7846V14.9285H140.607V16.5485H134.75V19.4348H139.601V21.0548H134.75V24.1672H140.604V25.7873H132.918V25.7846Z" fill="#F7FBF5"/>
<path d="M141.448 23.3717L142.745 22.0575C143.328 23.6457 144.968 24.2628 146.297 24.2628C147.383 24.2628 148.259 23.8744 148.259 22.8849C148.259 21.8314 147.383 21.5388 145.972 21.2329L144.949 21.0068C143.408 20.6822 141.771 19.9853 141.771 17.9263C141.771 15.8833 143.538 14.782 145.583 14.782C147.577 14.782 149.167 15.6093 149.947 17.099L148.568 18.4131C147.969 17.0671 146.8 16.4845 145.469 16.4845C144.43 16.4845 143.685 16.9713 143.685 17.7986C143.685 18.7536 144.43 19.0941 145.615 19.3867L146.832 19.6794C148.568 20.0997 150.125 20.7807 150.125 22.8556C150.125 24.8161 148.472 25.952 146.265 25.952C144.191 25.9467 142.292 25.2019 141.448 23.3717Z" fill="#F7FBF5"/>
<path d="M33.7916 38.2819V27.4231H38.2351C40.522 27.4231 42.3058 28.5909 42.3058 31.1819C42.3058 33.6612 40.538 34.845 38.2351 34.845H35.6233V38.2819H33.7916ZM35.626 29.0431V33.2249H38.0593C39.308 33.2249 40.4102 32.7541 40.4102 31.1819C40.4102 29.4954 39.308 29.0431 38.0593 29.0431H35.626Z" fill="#F7FBF5"/>
<path d="M43.3441 32.8365C43.3441 29.7081 45.5006 27.2607 48.6981 27.2607C51.8769 27.2607 54.052 29.7081 54.052 32.8365C54.052 35.9808 51.8796 38.4281 48.6981 38.4281C45.5033 38.4255 43.3441 35.9781 43.3441 32.8365ZM52.1351 32.8365C52.1351 30.5993 50.9824 28.9952 48.714 28.9952C46.4457 28.9952 45.2743 30.5993 45.2743 32.8365C45.2743 35.0896 46.4431 36.6777 48.714 36.6777C50.985 36.6777 52.1351 35.087 52.1351 32.8365Z" fill="#F7FBF5"/>
<path d="M55.7666 38.2819V27.4231H60.6653C62.8724 27.4231 64.5257 28.5563 64.5257 30.7935C64.5257 32.6078 63.2771 33.6798 61.5732 33.874C62.2228 34.0682 62.6594 34.4725 63.0481 35.1535L64.8984 38.2819H62.7898L60.9076 35.0578C60.5029 34.3289 59.9518 34.0682 58.9295 34.0682H57.5983V38.2819H55.7666ZM57.601 29.0431V32.5758H60.4869C61.6397 32.5758 62.6274 32.1555 62.6274 30.8414C62.6274 29.4634 61.6371 29.0431 60.4869 29.0431H57.601Z" fill="#F7FBF5"/>
<path d="M68.0612 38.2819V29.0431H64.736V27.4231H73.2368V29.0431H69.8956V38.2819H68.0612Z" fill="#F7FBF5"/>
<path d="M72.0015 38.2819L76.2506 27.4231H78.3591L82.6082 38.2819H80.5981L79.5598 35.5419H74.97L73.9317 38.2819H72.0015ZM75.5717 33.9538H78.9608L77.8586 31.0196L77.2756 29.0591L76.6925 31.0196L75.5717 33.9538Z" fill="#F7FBF5"/>
<path d="M83.3403 38.2819V27.4231H85.172V36.6619H90.7363V38.2819H83.3403Z" fill="#F7FBF5"/>
</g>
<defs>
<clipPath id="clip0_91_462">
<rect width="27.7021" height="42" fill="white"/>
</clipPath>
<clipPath id="clip1_91_462">
<rect width="117.957" height="35.7447" fill="white" transform="translate(32.1703 2.68091)"/>
</clipPath>
</defs>
</svg>

<svg width="151" height="42" fill="none" xmlns="http://www.w3.org/2000/svg"><g clip-path="url(#a)" fill="#F7FBF5"><path d="M27.702 20.794c0 4.05-2.115 7.622-5.312 9.687-.673.436-1.393.805-2.152 1.097V42.6h-2.866V29.552a8.982 8.982 0 0 0 5.018-2.55 8.776 8.776 0 0 0 2.574-6.208c0-4.426-3.298-8.104-7.592-8.758V9.304c5.81.672 10.33 5.57 10.33 11.49Z"/><path d="M26.552 0v2.842H14.645v6.346l-.012.004v2.244a9.015 9.015 0 0 0-4.976 2.507 8.788 8.788 0 0 0-2.615 6.25c0 4.426 3.298 8.105 7.591 8.759v2.732c-5.808-.672-10.329-5.57-10.329-11.49 0-4.068 2.134-7.653 5.354-9.715.7-.45 1.455-.828 2.249-1.121V2.842H0V0h26.552Z"/></g><g clip-path="url(#b)" fill="#F7FBF5"><path d="M35.495 13.54V4.3H32.17v-1.62h8.498V4.3h-3.34v9.239h-1.833ZM41.414 13.54V2.68h1.832v4.507h5.223V2.681h1.832V13.54h-1.832V8.807h-5.22v4.733h-1.835ZM52.734 13.54V2.68h7.689v1.621h-5.855v2.886h4.851v1.62h-4.85v3.113h5.854v1.62h-7.689ZM32.17 20.34c0-3.13 2.157-5.577 5.354-5.577 3.18 0 5.354 2.448 5.354 5.576 0 3.145-2.172 5.592-5.354 5.592-3.197 0-5.354-2.448-5.354-5.592Zm8.791 0c0-2.238-1.152-3.842-3.42-3.842-2.27 0-3.44 1.607-3.44 3.841 0 2.253 1.168 3.841 3.44 3.841 2.27 0 3.42-1.588 3.42-3.84ZM44.593 25.785V14.928h4.443c2.287 0 4.07 1.168 4.07 3.76 0 2.479-1.767 3.662-4.07 3.662h-2.611v3.437h-1.832v-.002Zm1.834-9.236v4.181h2.434c1.248 0 2.35-.47 2.35-2.043 0-1.686-1.102-2.139-2.35-2.139h-2.434ZM54.47 25.785V14.928h4.443c2.287 0 4.071 1.168 4.071 3.76 0 2.479-1.768 3.662-4.07 3.662h-2.612v3.437H54.47v-.002Zm1.834-9.236v4.181h2.434c1.248 0 2.35-.47 2.35-2.043 0-1.686-1.102-2.139-2.35-2.139h-2.434ZM64.022 20.34c0-3.13 2.157-5.577 5.354-5.577 3.18 0 5.352 2.448 5.352 5.576 0 3.145-2.173 5.592-5.352 5.592-3.197 0-5.354-2.448-5.354-5.592Zm8.791 0c0-2.238-1.15-3.842-3.42-3.842-2.272 0-3.44 1.604-3.44 3.841 0 2.253 1.168 3.841 3.44 3.841 2.27 0 3.42-1.588 3.42-3.84ZM76.445 25.785V14.928h4.899c2.207 0 3.86 1.134 3.86 3.37 0 1.815-1.249 2.887-2.953 3.081.65.195 1.087.599 1.475 1.28l1.85 3.128h-2.108l-1.882-3.224c-.405-.729-.956-.99-1.978-.99h-1.331v4.214h-1.832v-.002Zm1.834-9.236v3.532h2.886c1.153 0 2.14-.42 2.14-1.734 0-1.378-.99-1.799-2.14-1.799H78.28ZM88.74 25.785v-9.236h-3.326v-1.62h8.501v1.62h-3.341v9.238H88.74v-.002ZM94.53 21.15V14.93h1.816v6.24c0 2.155.73 3.03 2.513 3.03 1.816 0 2.513-.875 2.513-3.03v-6.24h1.816v6.222c0 3.29-1.379 4.796-4.347 4.796-2.9 0-4.31-1.506-4.31-4.796ZM105.494 25.785V14.928h1.704l4.395 6.321 1.07 1.703-.114-2.06V14.93h1.832v10.858h-1.688l-4.51-6.419-.991-1.54.131 1.977v5.98h-1.829ZM116.814 25.785V14.928h1.832v10.86h-1.832v-.003ZM122.732 25.785v-9.236h-3.325v-1.62h8.498v1.62h-3.341v9.238h-1.832v-.002ZM128.653 25.785V14.928h1.832v10.86h-1.832v-.003ZM132.918 25.785V14.928h7.689v1.62h-5.857v2.887h4.851v1.62h-4.851v3.112h5.854v1.62h-7.686v-.002ZM141.448 23.372l1.297-1.314c.583 1.588 2.223 2.205 3.552 2.205 1.086 0 1.962-.389 1.962-1.378 0-1.054-.876-1.346-2.287-1.652l-1.023-.226c-1.541-.325-3.178-1.022-3.178-3.08 0-2.044 1.767-3.145 3.812-3.145 1.994 0 3.584.827 4.364 2.317l-1.379 1.314c-.599-1.346-1.768-1.928-3.099-1.928-1.039 0-1.784.486-1.784 1.314 0 .955.745 1.295 1.93 1.588l1.217.292c1.736.42 3.293 1.102 3.293 3.177 0 1.96-1.653 3.096-3.86 3.096-2.074-.005-3.973-.75-4.817-2.58ZM33.792 38.282V27.423h4.443c2.287 0 4.07 1.168 4.07 3.759 0 2.48-1.767 3.663-4.07 3.663h-2.612v3.437h-1.831Zm1.834-9.239v4.182h2.433c1.249 0 2.351-.47 2.351-2.043 0-1.687-1.102-2.139-2.35-2.139h-2.434ZM43.344 32.837c0-3.129 2.157-5.576 5.354-5.576 3.179 0 5.354 2.447 5.354 5.576 0 3.144-2.172 5.591-5.354 5.591-3.195-.002-5.354-2.45-5.354-5.591Zm8.791 0c0-2.238-1.153-3.842-3.421-3.842s-3.44 1.604-3.44 3.841c0 2.254 1.17 3.842 3.44 3.842 2.271 0 3.421-1.591 3.421-3.841ZM55.767 38.282V27.423h4.898c2.207 0 3.86 1.133 3.86 3.37 0 1.815-1.248 2.887-2.952 3.081.65.194 1.086.598 1.475 1.28l1.85 3.128H62.79l-1.882-3.224c-.405-.73-.956-.99-1.979-.99H57.6v4.214h-1.832Zm1.834-9.239v3.533h2.886c1.153 0 2.14-.42 2.14-1.735 0-1.378-.99-1.798-2.14-1.798H57.6ZM68.061 38.282v-9.239h-3.325v-1.62h8.5v1.62h-3.34v9.239H68.06ZM72.001 38.282l4.25-10.859h2.108l4.25 10.859h-2.01l-1.04-2.74H74.97l-1.038 2.74h-1.93Zm3.57-4.328h3.39l-1.102-2.934-.583-1.96-.584 1.96-1.12 2.934ZM83.34 38.282V27.423h1.832v9.239h5.564v1.62H83.34Z"/></g><defs><clipPath id="a"><path fill="#fff" d="M0 0h27.702v42H0z"/></clipPath><clipPath id="b"><path fill="#fff" transform="translate(32.17 2.68)" d="M0 0h117.957v35.745H0z"/></clipPath></defs></svg>
